X: 37864
T: Sospan Fach
R: reel
M: 4/4
K: Cdorian
D2|G2 G>G G2 GA|B4 G2 B2|A2 A>A (Ac)BA|G6 DD|
GGGG G2 (GA)|B4 G2 d2|d2 cB A<c BA|G8||
d2 d2 d3 B|c>c cc c4|B2 B2 B3 G|A>A AA A2 d2|
d4 c2 B2|A c3 B A3|G8|d4 B2 d2|c4 c4|
B4 G2 B2|A4 A4|(G2 A2) B2 c2|(d2 e2) d2 c2|
B B3 A3 A|G8||

